markup/images/icon31.svg

<svg xmlns="http://www.w3.org/2000/svg" width="486" height="290"><path fill-rule="evenodd" fill="#FAEF79" d="M478.905 200.637c-11.99 0-17.6 5.186-24.703 11.751-7.865 7.27-16.779 15.509-34.283 15.509-17.5 0-26.414-8.239-34.279-15.509-7.101-6.565-12.711-11.75-24.698-11.75s-17.597 5.185-24.699 11.749c-7.864 7.271-16.778 15.51-34.279 15.51-17.501 0-26.414-8.239-34.279-15.51-7.101-6.564-12.71-11.749-24.697-11.749-11.986 0-17.595 5.185-24.696 11.749-7.864 7.271-16.777 15.51-34.279 15.51-17.499 0-26.41-8.239-34.274-15.51-7.1-6.564-12.709-11.749-24.693-11.749-11.986 0-17.595 5.185-24.696 11.749-7.864 7.271-16.778 15.51-34.278 15.51-17.501 0-26.415-8.239-34.28-15.51-7.101-6.564-12.711-11.749-24.697-11.749-3.918 0-7.095-3.209-7.095-7.166 0-3.958 3.177-7.166 7.095-7.166 17.5 0 26.414 8.24 34.279 15.509 7.101 6.565 12.711 11.75 24.698 11.75 11.986 0 17.595-5.185 24.696-11.75 7.864-7.269 16.777-15.509 34.278-15.509 17.499 0 26.411 8.24 34.275 15.51 7.1 6.564 12.707 11.749 24.692 11.749 11.988 0 17.596-5.185 24.697-11.75 7.864-7.269 16.778-15.509 34.278-15.509 17.501 0 26.414 8.24 34.279 15.509 7.101 6.565 12.711 11.75 24.697 11.75 11.988 0 17.597-5.185 24.698-11.75 7.865-7.269 16.779-15.509 34.28-15.509s26.415 8.24 34.28 15.509c7.101 6.565 12.71 11.75 24.697 11.75 11.99 0 17.6-5.185 24.703-11.75 7.865-7.269 16.78-15.509 34.283-15.509 3.917 0 7.095 3.208 7.095 7.166 0 3.957-3.178 7.165-7.095 7.165zm0-62.101c-11.99 0-17.6 5.185-24.703 11.75-7.865 7.27-16.779 15.509-34.283 15.509-17.5 0-26.414-8.239-34.279-15.509-7.101-6.565-12.711-11.75-24.698-11.75s-17.597 5.185-24.699 11.749c-7.864 7.271-16.778 15.51-34.279 15.51-17.501 0-26.414-8.239-34.279-15.51-7.101-6.564-12.71-11.749-24.697-11.749-11.986 0-17.595 5.185-24.696 11.749-7.864 7.271-16.777 15.51-34.279 15.51-17.499 0-26.41-8.239-34.274-15.51-7.1-6.564-12.709-11.749-24.693-11.749-11.986 0-17.595 5.185-24.696 11.749-7.864 7.271-16.778 15.51-34.278 15.51-17.501 0-26.415-8.239-34.28-15.51-7.101-6.564-12.711-11.749-24.697-11.749-3.918 0-7.095-3.209-7.095-7.166 0-3.957 3.177-7.165 7.095-7.165 17.5 0 26.414 8.239 34.279 15.509 7.101 6.564 12.711 11.75 24.698 11.75 11.986 0 17.595-5.186 24.696-11.75 7.864-7.27 16.777-15.509 34.278-15.509 17.499 0 26.411 8.239 34.275 15.51 7.1 6.563 12.707 11.749 24.692 11.749 11.988 0 17.596-5.186 24.697-11.75 7.864-7.27 16.778-15.509 34.278-15.509 17.501 0 26.414 8.239 34.279 15.509 7.101 6.564 12.711 11.75 24.697 11.75 11.988 0 17.597-5.186 24.698-11.75 7.865-7.27 16.779-15.509 34.28-15.509s26.415 8.239 34.28 15.509c7.101 6.564 12.71 11.75 24.697 11.75 11.99 0 17.6-5.186 24.703-11.75 7.865-7.27 16.78-15.509 34.283-15.509 3.917 0 7.095 3.208 7.095 7.165s-3.178 7.166-7.095 7.166zm0-62.103c-11.99 0-17.6 5.185-24.703 11.751-7.865 7.269-16.779 15.508-34.283 15.508-17.5 0-26.414-8.239-34.279-15.508-7.101-6.566-12.711-11.751-24.698-11.751s-17.597 5.185-24.699 11.751c-7.864 7.269-16.778 15.508-34.279 15.508-17.501 0-26.414-8.239-34.279-15.508-7.101-6.566-12.71-11.751-24.697-11.751-11.986 0-17.595 5.185-24.696 11.751-7.864 7.269-16.777 15.508-34.279 15.508-17.499 0-26.41-8.239-34.274-15.508-7.1-6.566-12.709-11.751-24.693-11.751-11.986 0-17.595 5.185-24.696 11.751-7.864 7.269-16.778 15.508-34.278 15.508-17.501 0-26.415-8.239-34.28-15.508-7.101-6.566-12.71-11.751-24.697-11.751C3.177 76.433 0 73.225 0 69.267c0-3.956 3.177-7.165 7.095-7.165 17.5 0 26.414 8.239 34.279 15.508 7.101 6.566 12.711 11.751 24.698 11.751 11.986 0 17.595-5.185 24.696-11.749 7.864-7.271 16.777-15.51 34.278-15.51 17.499 0 26.411 8.241 34.275 15.51 7.1 6.565 12.707 11.749 24.692 11.749 11.988 0 17.596-5.185 24.697-11.749 7.864-7.271 16.778-15.51 34.278-15.51 17.501 0 26.414 8.239 34.279 15.51 7.101 6.564 12.711 11.749 24.697 11.749 11.988 0 17.597-5.185 24.698-11.749 7.865-7.271 16.779-15.51 34.28-15.51s26.415 8.239 34.28 15.51c7.101 6.564 12.71 11.749 24.697 11.749 11.99 0 17.6-5.185 24.703-11.751 7.865-7.269 16.78-15.508 34.283-15.508 3.917 0 7.095 3.209 7.095 7.165 0 3.958-3.178 7.166-7.095 7.166zm0-62.102c-11.99 0-17.6 5.186-24.703 11.751-7.865 7.269-16.779 15.508-34.283 15.508-17.5 0-26.414-8.239-34.279-15.508-7.101-6.565-12.711-11.751-24.698-11.751s-17.597 5.186-24.699 11.751c-7.864 7.269-16.778 15.508-34.279 15.508-17.501 0-26.414-8.239-34.279-15.508-7.101-6.565-12.71-11.751-24.697-11.751-11.986 0-17.595 5.186-24.696 11.751-7.864 7.269-16.777 15.508-34.279 15.508-17.499 0-26.41-8.239-34.274-15.508-7.1-6.565-12.709-11.751-24.693-11.751-11.986 0-17.595 5.186-24.696 11.751-7.864 7.269-16.778 15.508-34.278 15.508-17.501 0-26.415-8.239-34.28-15.508-7.101-6.565-12.71-11.751-24.697-11.751C3.177 14.331 0 11.124 0 7.166 0 3.209 3.177 0 7.095 0c17.5 0 26.414 8.239 34.279 15.509 7.101 6.565 12.711 11.75 24.698 11.75 11.986 0 17.595-5.185 24.696-11.748C98.632 8.239 107.545 0 125.046 0c17.499 0 26.411 8.24 34.275 15.511 7.1 6.564 12.707 11.748 24.692 11.748 11.988 0 17.596-5.185 24.697-11.748C216.574 8.239 225.488 0 242.988 0c17.501 0 26.414 8.239 34.279 15.511 7.101 6.563 12.711 11.748 24.697 11.748 11.988 0 17.597-5.185 24.698-11.748C334.527 8.239 343.441 0 360.942 0s26.415 8.239 34.28 15.511c7.101 6.563 12.71 11.748 24.697 11.748 11.99 0 17.6-5.185 24.703-11.75C452.487 8.239 461.402 0 478.905 0 482.822 0 486 3.209 486 7.166c0 3.958-3.178 7.165-7.095 7.165zM7.095 248.408c17.5 0 26.414 8.24 34.279 15.509 7.101 6.565 12.711 11.75 24.698 11.75 11.986 0 17.595-5.185 24.696-11.75 7.864-7.269 16.777-15.509 34.278-15.509 17.499 0 26.411 8.24 34.275 15.51 7.1 6.564 12.707 11.749 24.692 11.749 11.988 0 17.596-5.185 24.697-11.75 7.864-7.269 16.778-15.509 34.278-15.509 17.501 0 26.414 8.24 34.279 15.509 7.101 6.565 12.711 11.75 24.697 11.75 11.988 0 17.597-5.185 24.698-11.75 7.865-7.269 16.779-15.509 34.28-15.509s26.415 8.24 34.28 15.509c7.101 6.565 12.71 11.75 24.697 11.75 11.99 0 17.6-5.185 24.703-11.75 7.865-7.269 16.78-15.509 34.283-15.509 3.917 0 7.095 3.207 7.095 7.166 0 3.956-3.178 7.165-7.095 7.165-11.99 0-17.6 5.186-24.703 11.751-7.865 7.269-16.779 15.508-34.283 15.508-17.5 0-26.414-8.239-34.279-15.508-7.101-6.565-12.711-11.751-24.698-11.751s-17.597 5.186-24.699 11.75c-7.864 7.27-16.778 15.509-34.279 15.509-17.501 0-26.414-8.239-34.279-15.509-7.101-6.564-12.71-11.75-24.697-11.75-11.986 0-17.595 5.186-24.696 11.75-7.864 7.27-16.777 15.509-34.279 15.509-17.499 0-26.41-8.239-34.274-15.509-7.1-6.564-12.709-11.75-24.693-11.75-11.986 0-17.595 5.186-24.696 11.75-7.864 7.27-16.778 15.509-34.278 15.509-17.501 0-26.415-8.239-34.28-15.509-7.101-6.564-12.711-11.75-24.697-11.75-3.918 0-7.095-3.209-7.095-7.165 0-3.959 3.177-7.166 7.095-7.166z"/></svg>

<svg 
 xmlns="http://www.w3.org/2000/svg"
 xmlns:xlink="http://www.w3.org/1999/xlink"
 width="486px" height="290px">
<path fill-rule="evenodd"  fill="rgb(250, 239, 121)"
 d="M478.905,200.637 C466.915,200.637 461.305,205.823 454.202,212.388 C446.337,219.658 437.423,227.897 419.919,227.897 C402.419,227.897 393.505,219.658 385.640,212.388 C378.539,205.823 372.929,200.638 360.942,200.638 C348.955,200.638 343.345,205.823 336.243,212.387 C328.379,219.658 319.465,227.897 301.964,227.897 C284.463,227.897 275.550,219.658 267.685,212.387 C260.584,205.823 254.975,200.638 242.988,200.638 C231.002,200.638 225.393,205.823 218.292,212.387 C210.428,219.658 201.515,227.897 184.013,227.897 C166.514,227.897 157.603,219.658 149.739,212.387 C142.639,205.823 137.030,200.638 125.046,200.638 C113.060,200.638 107.451,205.823 100.350,212.387 C92.486,219.658 83.572,227.897 66.072,227.897 C48.571,227.897 39.657,219.658 31.792,212.387 C24.691,205.823 19.081,200.638 7.095,200.638 C3.177,200.638 -0.000,197.429 -0.000,193.472 C-0.000,189.514 3.177,186.306 7.095,186.306 C24.595,186.306 33.509,194.546 41.374,201.815 C48.475,208.380 54.085,213.565 66.072,213.565 C78.058,213.565 83.667,208.380 90.768,201.815 C98.632,194.546 107.545,186.306 125.046,186.306 C142.545,186.306 151.457,194.546 159.321,201.816 C166.421,208.380 172.028,213.565 184.013,213.565 C196.001,213.565 201.609,208.380 208.710,201.815 C216.574,194.546 225.488,186.306 242.988,186.306 C260.489,186.306 269.402,194.546 277.267,201.815 C284.368,208.380 289.978,213.565 301.964,213.565 C313.952,213.565 319.561,208.380 326.662,201.815 C334.527,194.546 343.441,186.306 360.942,186.306 C378.443,186.306 387.357,194.546 395.222,201.815 C402.323,208.380 407.932,213.565 419.919,213.565 C431.909,213.565 437.519,208.380 444.622,201.815 C452.487,194.546 461.402,186.306 478.905,186.306 C482.822,186.306 486.000,189.514 486.000,193.472 C486.000,197.429 482.822,200.637 478.905,200.637 ZM478.905,138.536 C466.915,138.536 461.305,143.721 454.202,150.286 C446.337,157.556 437.423,165.795 419.919,165.795 C402.419,165.795 393.505,157.556 385.640,150.286 C378.539,143.721 372.929,138.536 360.942,138.536 C348.955,138.536 343.345,143.721 336.243,150.285 C328.379,157.556 319.465,165.795 301.964,165.795 C284.463,165.795 275.550,157.556 267.685,150.285 C260.584,143.721 254.975,138.536 242.988,138.536 C231.002,138.536 225.393,143.721 218.292,150.285 C210.428,157.556 201.515,165.795 184.013,165.795 C166.514,165.795 157.603,157.556 149.739,150.285 C142.639,143.721 137.030,138.536 125.046,138.536 C113.060,138.536 107.451,143.721 100.350,150.285 C92.486,157.556 83.572,165.795 66.072,165.795 C48.571,165.795 39.657,157.556 31.792,150.285 C24.691,143.721 19.081,138.536 7.095,138.536 C3.177,138.536 -0.000,135.327 -0.000,131.370 C-0.000,127.413 3.177,124.205 7.095,124.205 C24.595,124.205 33.509,132.444 41.374,139.714 C48.475,146.278 54.085,151.464 66.072,151.464 C78.058,151.464 83.667,146.278 90.768,139.714 C98.632,132.444 107.545,124.205 125.046,124.205 C142.545,124.205 151.457,132.444 159.321,139.715 C166.421,146.278 172.028,151.464 184.013,151.464 C196.001,151.464 201.609,146.278 208.710,139.714 C216.574,132.444 225.488,124.205 242.988,124.205 C260.489,124.205 269.402,132.444 277.267,139.714 C284.368,146.278 289.978,151.464 301.964,151.464 C313.952,151.464 319.561,146.278 326.662,139.714 C334.527,132.444 343.441,124.205 360.942,124.205 C378.443,124.205 387.357,132.444 395.222,139.714 C402.323,146.278 407.932,151.464 419.919,151.464 C431.909,151.464 437.519,146.278 444.622,139.714 C452.487,132.444 461.402,124.205 478.905,124.205 C482.822,124.205 486.000,127.413 486.000,131.370 C486.000,135.327 482.822,138.536 478.905,138.536 ZM478.905,76.433 C466.915,76.433 461.305,81.618 454.202,88.184 C446.337,95.453 437.423,103.692 419.919,103.692 C402.419,103.692 393.505,95.453 385.640,88.184 C378.539,81.618 372.929,76.433 360.942,76.433 C348.955,76.433 343.345,81.618 336.243,88.184 C328.379,95.453 319.465,103.692 301.964,103.692 C284.463,103.692 275.550,95.453 267.685,88.184 C260.584,81.618 254.975,76.433 242.988,76.433 C231.002,76.433 225.393,81.618 218.292,88.184 C210.428,95.453 201.515,103.692 184.013,103.692 C166.514,103.692 157.603,95.453 149.739,88.184 C142.639,81.618 137.030,76.433 125.046,76.433 C113.060,76.433 107.451,81.618 100.350,88.184 C92.486,95.453 83.572,103.692 66.072,103.692 C48.571,103.692 39.657,95.453 31.792,88.184 C24.691,81.618 19.082,76.433 7.095,76.433 C3.177,76.433 -0.000,73.225 -0.000,69.267 C-0.000,65.311 3.177,62.102 7.095,62.102 C24.595,62.102 33.509,70.341 41.374,77.610 C48.475,84.176 54.085,89.361 66.072,89.361 C78.058,89.361 83.667,84.176 90.768,77.612 C98.632,70.341 107.545,62.102 125.046,62.102 C142.545,62.102 151.457,70.343 159.321,77.612 C166.421,84.177 172.028,89.361 184.013,89.361 C196.001,89.361 201.609,84.176 208.710,77.612 C216.574,70.341 225.488,62.102 242.988,62.102 C260.489,62.102 269.402,70.341 277.267,77.612 C284.368,84.176 289.978,89.361 301.964,89.361 C313.952,89.361 319.561,84.176 326.662,77.612 C334.527,70.341 343.441,62.102 360.942,62.102 C378.443,62.102 387.357,70.341 395.222,77.612 C402.323,84.176 407.932,89.361 419.919,89.361 C431.909,89.361 437.519,84.176 444.622,77.610 C452.487,70.341 461.402,62.102 478.905,62.102 C482.822,62.102 486.000,65.311 486.000,69.267 C486.000,73.225 482.822,76.433 478.905,76.433 ZM478.905,14.331 C466.915,14.331 461.305,19.517 454.202,26.082 C446.337,33.351 437.423,41.590 419.919,41.590 C402.419,41.590 393.505,33.351 385.640,26.082 C378.539,19.517 372.929,14.331 360.942,14.331 C348.955,14.331 343.345,19.517 336.243,26.082 C328.379,33.351 319.465,41.590 301.964,41.590 C284.463,41.590 275.550,33.351 267.685,26.082 C260.584,19.517 254.975,14.331 242.988,14.331 C231.002,14.331 225.393,19.517 218.292,26.082 C210.428,33.351 201.515,41.590 184.013,41.590 C166.514,41.590 157.603,33.351 149.739,26.082 C142.639,19.517 137.030,14.331 125.046,14.331 C113.060,14.331 107.451,19.517 100.350,26.082 C92.486,33.351 83.572,41.590 66.072,41.590 C48.571,41.590 39.657,33.351 31.792,26.082 C24.691,19.517 19.082,14.331 7.095,14.331 C3.177,14.331 -0.000,11.124 -0.000,7.166 C-0.000,3.209 3.177,0.000 7.095,0.000 C24.595,0.000 33.509,8.239 41.374,15.509 C48.475,22.074 54.085,27.259 66.072,27.259 C78.058,27.259 83.667,22.074 90.768,15.511 C98.632,8.239 107.545,0.000 125.046,0.000 C142.545,0.000 151.457,8.240 159.321,15.511 C166.421,22.075 172.028,27.259 184.013,27.259 C196.001,27.259 201.609,22.074 208.710,15.511 C216.574,8.239 225.488,0.000 242.988,0.000 C260.489,0.000 269.402,8.239 277.267,15.511 C284.368,22.074 289.978,27.259 301.964,27.259 C313.952,27.259 319.561,22.074 326.662,15.511 C334.527,8.239 343.441,0.000 360.942,0.000 C378.443,0.000 387.357,8.239 395.222,15.511 C402.323,22.074 407.932,27.259 419.919,27.259 C431.909,27.259 437.519,22.074 444.622,15.509 C452.487,8.239 461.402,0.000 478.905,0.000 C482.822,0.000 486.000,3.209 486.000,7.166 C486.000,11.124 482.822,14.331 478.905,14.331 ZM7.095,248.408 C24.595,248.408 33.509,256.648 41.374,263.917 C48.475,270.482 54.085,275.667 66.072,275.667 C78.058,275.667 83.667,270.482 90.768,263.917 C98.632,256.648 107.545,248.408 125.046,248.408 C142.545,248.408 151.457,256.648 159.321,263.918 C166.421,270.482 172.028,275.667 184.013,275.667 C196.001,275.667 201.609,270.482 208.710,263.917 C216.574,256.648 225.488,248.408 242.988,248.408 C260.489,248.408 269.402,256.648 277.267,263.917 C284.368,270.482 289.978,275.667 301.964,275.667 C313.952,275.667 319.561,270.482 326.662,263.917 C334.527,256.648 343.441,248.408 360.942,248.408 C378.443,248.408 387.357,256.648 395.222,263.917 C402.323,270.482 407.932,275.667 419.919,275.667 C431.909,275.667 437.519,270.482 444.622,263.917 C452.487,256.648 461.402,248.408 478.905,248.408 C482.822,248.408 486.000,251.615 486.000,255.574 C486.000,259.530 482.822,262.739 478.905,262.739 C466.915,262.739 461.305,267.925 454.202,274.490 C446.337,281.759 437.423,289.998 419.919,289.998 C402.419,289.998 393.505,281.759 385.640,274.490 C378.539,267.925 372.929,262.739 360.942,262.739 C348.955,262.739 343.345,267.925 336.243,274.489 C328.379,281.759 319.465,289.998 301.964,289.998 C284.463,289.998 275.550,281.759 267.685,274.489 C260.584,267.925 254.975,262.739 242.988,262.739 C231.002,262.739 225.393,267.925 218.292,274.489 C210.428,281.759 201.515,289.998 184.013,289.998 C166.514,289.998 157.603,281.759 149.739,274.489 C142.639,267.925 137.030,262.739 125.046,262.739 C113.060,262.739 107.451,267.925 100.350,274.489 C92.486,281.759 83.572,289.998 66.072,289.998 C48.571,289.998 39.657,281.759 31.792,274.489 C24.691,267.925 19.081,262.739 7.095,262.739 C3.177,262.739 -0.000,259.530 -0.000,255.574 C-0.000,251.615 3.177,248.408 7.095,248.408 Z"/>
</svg>
